X: 28496
T: Munster Bank, The
R: polka
M: 2/4
K: Gmajor
|:G>E DE|GA Bd|ed Bd/B/|AG E2|
G>E DE|GA Bd|ed Bd/B/|AG G2:|
|:ed Bd|ed d z|g>e dB|AG E2|
G>E DE|GA Bd|ed Bd/B/|AG G2:|

